X:1
T:I Am Sweeping Thro’ the Gate
T:I Am Sweeping Thro’ the Gate
T:Philip Phillips
T:John Parker, 1876
T:Public Domain Courtesy of the Cyber Hymnal™
T:Public Domain Courtesy of the Cyber Hymnal™
C:Philip Phillips
Z:Public Domain
Z:Courtesy of the Cyber Hymnal™
%%score ( 1 2 ) ( 3 4 )
L:1/8
Q:1/4=105
M:4/4
K:Ab
V:1 treble 
V:2 treble 
V:3 bass 
V:4 bass 
V:1
 [EA][EB] | [Ac][Ac][Ac][Ac] [Ac]2 [GB]A | [FB][FA][FA][DF] [CE]2 [CA][DB] | %3
w: 1.~I am|now a child of God, For I’m|washed in Je- sus’ blood; I am|
w: 2.~Oh! the|bless- èd Lord of light, He up-|holds me by His might; And His|
w: 3.~I am|sweep- ing thro’ the gate Where the|bless- èd for me wait, Where the|
w: 4.~Burst are|all my pris- on bars; And I|soar be- yond the stars, To my|
 [Ec][Ec][Ec][Ec] [Ec][Ed][Ee][Ec] | [EB]6 [EA][EB] | [Ec][Ec][Ec][Ec] [Ec]2 [EB][Ec] | %6
w: watch- ing and I’m long- ing while I|wait; Soon on|wings of love I’ll fly, To my|
w: arms en- fold, and com- fort while I|wait; I am|lean- ing on His breast, Oh! the|
w: wea- ry work- ers rest for- ev- er-|more; Where the|strife of earth is done, And the|
w: Fa- ther’s house, the bright and blest es-|tate. Lo! the|morn e- ter- nal breaks, And the|
 [Fd][Fd][Fd][Fd] !fermata![Fd]2 [Fd][Af] | [Ae]<[Ac] [CA][EB] [Ec]<[Ec] [DB]>[DB] | [CA]6 || %9
w: home be- yond the sky, To my|wel- come, as I’m sweep- ing thro’ the|gate.|
w: sweet- ness of His rest, Hal- le-|lu- jah, I am sweep- ing thro’ the|gate.|
w: crown of life is won, Oh, the|glo- ry of that ci- ty just be-|fore!|
w: song im- mor- tal wakes, Robed in|white- ness I am sweep- ing thro’ the|gate.|
"^Refrain" [Ac][Bd] | [ce][ce][ce][ce] [ce]2 [ce][ce] | [df][ce][Bd][Ac] !fermata![GB]4 |: %12
w: |||
w: In the|blood of yon- der Lamb, Washed from|ev- ery stain I am;|
w: |||
w: |||
 [Ec]4 [Ec]4 | [Ec]4 [EA]4 | [Fd]4 [Fd]4 | [EB]4 !fermata![Ec]2"^riten." [EA][EG] | %16
w: ||||
w: Robed in|white- ness,|clad in|bright- ness, I am|
w: ||||
w: ||||
 [FB]2 [FB]2 [EA]2 [DG]2 | [CA]6 :| %18
w: ||
w: sweep- ing thro’ the|gate|
w: ||
w: ||
V:2
 x2 | x7 A | x8 | x8 | x8 | x8 | x8 | x8 | x6 || x2 | x8 | x8 |: x8 | x8 | x8 | x8 | x8 | x6 :| %18
V:3
 [A,,C][A,,C] | [A,,C][A,,C][A,,C][A,,C] [A,,C]2 [B,,E][C,E] | %2
 [D,D][D,D][D,D][D,A,] [A,,A,]2 [A,,A,][A,,A,] | %3
 [A,,A,][A,,A,][A,,A,][A,,A,] [A,,A,][B,,G,][C,A,][A,,A,] | [E,G,]6 [C,A,][E,G,] | %5
 A,A,A,A, A,2 [E,G,]A, | [D,A,][D,A,][D,A,][D,A,] !fermata![D,A,]2 [D,A,][D,D] | %7
 [E,C]<[E,A,] [E,A,][E,G,] [E,A,]<[E,A,] [E,G,]>[E,A,] | [A,,A,]6 || z2 | z8 | z8 |: %12
 [A,,A,]4 [A,,A,]4 | [A,,A,]4 [C,A,]4 | [D,A,]4 [D,A,]4 | [E,G,]4 !fermata!A,2 [C,A,][C,A,] | %16
 [D,D]2 [D,D]2 [D,C]2 [E,B,]2 | [A,,A,]6 :| %18
V:4
 x2 | x8 | x8 | x8 | x8 | A,A,A,A, A,2 A, x | x8 | x8 | x6 || x2 | x8 | x8 |: x8 | x8 | x8 | %15
 x4 A,2 x2 | x8 | x6 :| %18

